X:536
T:Reel 536
M:4/4
K:Gmaj
L:1/8
d>G (3GGG dcAc| (3BAG dB efdB|cA (3AAA eAAA|cdef gedc|BGGB AGdG (3BAG |dgfd edcB|cdef gedc|BGAF G2z2|dg (3gfg bgeg|dg (3gfg a2ab|c'abg afdf| (3cde fg fedc|dggg agg2 (3fef |gfga bggb|c'bag fgag|fdef gage|
